report_00007_2020-12-11T15:55:29.892Z/uses-webp-images/comparison/line/3_vs_4.svg

<svg width="640" height="500" xmlns="http://www.w3.org/2000/svg" xmlns:xlink="http://www.w3.org/1999/xlink"><path fill="#fff" d="M0 0h640v500H0z"/><defs><path id="d" stroke-width=".222" stroke="currentColor" d="M-1-1h2v2h-2z"/><path id="b" stroke-width=".222" stroke="currentColor" d="M0-1.33l-1.33 2h2.66z"/><path id="f" stroke-width=".222" stroke="currentColor" d="M0 1.33L1.265.411.782-1.067l-1.564-.009-.483 1.487z"/><use xlink:href="#b" id="c" stroke="currentColor" transform="rotate(180)"/><use xlink:href="#d" id="e" stroke="currentColor" transform="rotate(45)"/><circle id="a" stroke-width=".222" stroke="currentColor" cx="0" cy="0" r="1"/></defs><g fill="none" color="#000" stroke="currentColor"><path stroke="#000" d="M70.5 412.1h9m535.5 0h-9"/><text transform="translate(62.2 416)" stroke="none" fill="#000" font-family="Arial" font-size="12" text-anchor="end"><tspan>27460</tspan></text></g><g fill="none" color="#000" stroke="currentColor"><path stroke="#000" d="M70.5 360.6h9m535.5 0h-9"/><text transform="translate(62.2 364.5)" stroke="none" fill="#000" font-family="Arial" font-size="12" text-anchor="end"><tspan>27480</tspan></text></g><g fill="none" color="#000" stroke="currentColor"><path stroke="#000" d="M70.5 309.2h9m535.5 0h-9"/><text transform="translate(62.2 313.1)" stroke="none" fill="#000" font-family="Arial" font-size="12" text-anchor="end"><tspan>27500</tspan></text></g><g fill="none" color="#000" stroke="currentColor"><path stroke="#000" d="M70.5 257.8h9m535.5 0h-9"/><text transform="translate(62.2 261.7)" stroke="none" fill="#000" font-family="Arial" font-size="12" text-anchor="end"><tspan>27520</tspan></text></g><g fill="none" color="#000" stroke="currentColor"><path stroke="#000" d="M70.5 206.3h9m535.5 0h-9"/><text transform="translate(62.2 210.2)" stroke="none" fill="#000" font-family="Arial" font-size="12" text-anchor="end"><tspan>27540</tspan></text></g><g fill="none" color="#000" stroke="currentColor"><path stroke="#000" d="M70.5 154.9h9m535.5 0h-9"/><text transform="translate(62.2 158.8)" stroke="none" fill="#000" font-family="Arial" font-size="12" text-anchor="end"><tspan>27560</tspan></text></g><g fill="none" color="#000" stroke="currentColor"><path stroke="#000" d="M70.5 103.5h9m535.5 0h-9"/><text transform="translate(62.2 107.4)" stroke="none" fill="#000" font-family="Arial" font-size="12" text-anchor="end"><tspan>27580</tspan></text></g><g fill="none" color="#000" stroke="currentColor"><path stroke="#000" d="M70.5 52h9M615 52h-9"/><text transform="translate(62.2 55.9)" stroke="none" fill="#000" font-family="Arial" font-size="12" text-anchor="end"><tspan>27600</tspan></text></g><g fill="none" color="#000" stroke="currentColor"><path stroke="#000" d="M70.5 446v-9m0-418.9v9"/><text transform="translate(70.5 467.9)" stroke="none" fill="#000" font-family="Arial" font-size="12" text-anchor="middle"><tspan>0</tspan></text></g><g fill="none" color="#000" stroke="currentColor"><path stroke="#000" d="M125.5 446v-9m0-418.9v9"/><text transform="translate(125.5 467.9)" stroke="none" fill="#000" font-family="Arial" font-size="12" text-anchor="middle"><tspan>10</tspan></text></g><g fill="none" color="#000" stroke="currentColor"><path stroke="#000" d="M180.5 446v-9m0-418.9v9"/><text transform="translate(180.5 467.9)" stroke="none" fill="#000" font-family="Arial" font-size="12" text-anchor="middle"><tspan>20</tspan></text></g><g fill="none" color="#000" stroke="currentColor"><path stroke="#000" d="M235.5 446v-9m0-418.9v9"/><text transform="translate(235.5 467.9)" stroke="none" fill="#000" font-family="Arial" font-size="12" text-anchor="middle"><tspan>30</tspan></text></g><g fill="none" color="#000" stroke="currentColor"><path stroke="#000" d="M290.5 446v-9m0-418.9v9"/><text transform="translate(290.5 467.9)" stroke="none" fill="#000" font-family="Arial" font-size="12" text-anchor="middle"><tspan>40</tspan></text></g><g fill="none" color="#000" stroke="currentColor"><path stroke="#000" d="M345.5 446v-9m0-418.9v9"/><text transform="translate(345.5 467.9)" stroke="none" fill="#000" font-family="Arial" font-size="12" text-anchor="middle"><tspan>50</tspan></text></g><g fill="none" color="#000" stroke="currentColor"><path stroke="#000" d="M400.5 446v-9m0-418.9v9"/><text transform="translate(400.5 467.9)" stroke="none" fill="#000" font-family="Arial" font-size="12" text-anchor="middle"><tspan>60</tspan></text></g><g fill="none" color="#000" stroke="currentColor"><path stroke="#000" d="M455.5 446v-9m0-418.9v9"/><text transform="translate(455.5 467.9)" stroke="none" fill="#000" font-family="Arial" font-size="12" text-anchor="middle"><tspan>70</tspan></text></g><g fill="none" color="#000" stroke="currentColor"><path stroke="#000" d="M510.5 446v-9m0-418.9v9"/><text transform="translate(510.5 467.9)" stroke="none" fill="#000" font-family="Arial" font-size="12" text-anchor="middle"><tspan>80</tspan></text></g><g fill="none" color="#000" stroke="currentColor"><path stroke="#000" d="M565.5 446v-9m0-418.9v9"/><text transform="translate(565.5 467.9)" stroke="none" fill="#000" font-family="Arial" font-size="12" text-anchor="middle"><tspan>90</tspan></text></g><path stroke="#000" d="M70.5 18.1V446H615V18.1H70.5z" fill="none" color="#000"/><text transform="translate(283.9 485.9)" stroke="none" fill="#000" font-family="Arial" font-size="12" text-anchor="end" color="#000"><tspan>pages+cached+nointeractive</tspan></text><path stroke="#9400D3" d="M292.2 482h42.2M70.5 437.8L76 52h22l5.5 385.8h5.5L114.5 52l5.5 385.8L125.5 52l5.5 385.8h11L147.5 52h22l5.5 385.8L180.5 52H197l5.5 385.8h5.5L213.5 52l5.5 385.8L224.5 52l5.5 385.8L235.5 52h11l5.5 385.8h5.5L263 52h44l5.5 385.8h5.5L323.5 52H351l5.5 385.8h5.5L367.5 52l5.5 385.8h5.5L384 52h5.5l5.5 385.8L400.5 52l5.5 385.8L411.5 52h44l5.5 385.8L466.5 52h33l5.5 385.8L510.5 52h11l5.5 385.8h5.5L538 52h5.5l5.5 385.8L554.5 52l5.5 385.8L565.5 52h5.5l5.5 385.8L582 52h5.5l5.5 385.8L598.5 52H615" fill="none" color="#000"/><text transform="translate(558.5 485.9)" stroke="none" fill="#000" font-family="Arial" font-size="12" text-anchor="end" color="#000"><tspan>pages+cached+noadtech</tspan></text><path stroke="#009E73" d="M566.8 482H609M70.5 52L76 437.8h11L92.5 52H98l5.5 385.8H120L125.5 52h5.5l5.5 385.8H153L158.5 52l5.5 385.8L169.5 52l5.5 385.8h44L224.5 52h5.5l5.5 385.8h22L263 52l5.5 385.8h5.5L279.5 52h5.5l5.5 385.8L296 52l5.5 385.8L307 52l5.5 385.8L318 52l5.5 385.8h5.5L334.5 52l5.5 385.8h16.5L362 52l5.5 385.8L373 52l5.5 385.8H406L411.5 52l5.5 385.8h27.5L450 52h11l5.5 385.8h5.5L477.5 52l5.5 385.8h11L499.5 52l5.5 385.8L510.5 52l5.5 385.8L521.5 52l5.5 385.8L532.5 52h11l5.5 385.8 5.5-411.5 5.5 411.5h22L587.5 52h5.5l5.5 385.8h11L615 52" fill="none" color="#000"/><g fill="none" color="#000" stroke="currentColor"><path stroke="#000" d="M70.5 18.1V446H615V18.1H70.5z"/></g></svg>

<?xml version="1.0" encoding="utf-8"  standalone="no"?>
<svg 
 width="640" height="500"
 viewBox="0 0 640 500"
 xmlns="http://www.w3.org/2000/svg"
 xmlns:xlink="http://www.w3.org/1999/xlink"
>

<title>Gnuplot</title>
<desc>Produced by GNUPLOT 5.4 patchlevel 0 </desc>

<g id="gnuplot_canvas">

<rect x="0" y="0" width="640" height="500" fill="#ffffff"/>
<defs>

	<circle id='gpDot' r='0.5' stroke-width='0.5' stroke='currentColor'/>
	<path id='gpPt0' stroke-width='0.222' stroke='currentColor' d='M-1,0 h2 M0,-1 v2'/>
	<path id='gpPt1' stroke-width='0.222' stroke='currentColor' d='M-1,-1 L1,1 M1,-1 L-1,1'/>
	<path id='gpPt2' stroke-width='0.222' stroke='currentColor' d='M-1,0 L1,0 M0,-1 L0,1 M-1,-1 L1,1 M-1,1 L1,-1'/>
	<rect id='gpPt3' stroke-width='0.222' stroke='currentColor' x='-1' y='-1' width='2' height='2'/>
	<rect id='gpPt4' stroke-width='0.222' stroke='currentColor' fill='currentColor' x='-1' y='-1' width='2' height='2'/>
	<circle id='gpPt5' stroke-width='0.222' stroke='currentColor' cx='0' cy='0' r='1'/>
	<use xlink:href='#gpPt5' id='gpPt6' fill='currentColor' stroke='none'/>
	<path id='gpPt7' stroke-width='0.222' stroke='currentColor' d='M0,-1.33 L-1.33,0.67 L1.33,0.67 z'/>
	<use xlink:href='#gpPt7' id='gpPt8' fill='currentColor' stroke='none'/>
	<use xlink:href='#gpPt7' id='gpPt9' stroke='currentColor' transform='rotate(180)'/>
	<use xlink:href='#gpPt9' id='gpPt10' fill='currentColor' stroke='none'/>
	<use xlink:href='#gpPt3' id='gpPt11' stroke='currentColor' transform='rotate(45)'/>
	<use xlink:href='#gpPt11' id='gpPt12' fill='currentColor' stroke='none'/>
	<path id='gpPt13' stroke-width='0.222' stroke='currentColor' d='M0,1.330 L1.265,0.411 L0.782,-1.067 L-0.782,-1.076 L-1.265,0.411 z'/>
	<use xlink:href='#gpPt13' id='gpPt14' fill='currentColor' stroke='none'/>
	<filter id='textbox' filterUnits='objectBoundingBox' x='0' y='0' height='1' width='1'>
	  <feFlood flood-color='#FFFFFF' flood-opacity='1' result='bgnd'/>
	  <feComposite in='SourceGraphic' in2='bgnd' operator='atop'/>
	</filter>
	<filter id='greybox' filterUnits='objectBoundingBox' x='0' y='0' height='1' width='1'>
	  <feFlood flood-color='lightgrey' flood-opacity='1' result='grey'/>
	  <feComposite in='SourceGraphic' in2='grey' operator='atop'/>
	</filter>
</defs>
<g fill="none" color="#FFFFFF" stroke="black" stroke-width="1.00" stroke-linecap="butt" stroke-linejoin="miter">
</g>
<g fill="none" color="black" stroke="currentColor" stroke-width="1.00" stroke-linecap="butt" stroke-linejoin="miter">
	<path stroke='black'  d='M70.5,412.1 L79.5,412.1 M615.0,412.1 L606.0,412.1  '/>	<g transform="translate(62.2,416.0)" stroke="none" fill="black" font-family="Arial" font-size="12.00"  text-anchor="end">
		<text><tspan font-family="Arial" > 27460</tspan></text>
	</g>
</g>
<g fill="none" color="black" stroke="currentColor" stroke-width="1.00" stroke-linecap="butt" stroke-linejoin="miter">
	<path stroke='black'  d='M70.5,360.6 L79.5,360.6 M615.0,360.6 L606.0,360.6  '/>	<g transform="translate(62.2,364.5)" stroke="none" fill="black" font-family="Arial" font-size="12.00"  text-anchor="end">
		<text><tspan font-family="Arial" > 27480</tspan></text>
	</g>
</g>
<g fill="none" color="black" stroke="currentColor" stroke-width="1.00" stroke-linecap="butt" stroke-linejoin="miter">
	<path stroke='black'  d='M70.5,309.2 L79.5,309.2 M615.0,309.2 L606.0,309.2  '/>	<g transform="translate(62.2,313.1)" stroke="none" fill="black" font-family="Arial" font-size="12.00"  text-anchor="end">
		<text><tspan font-family="Arial" > 27500</tspan></text>
	</g>
</g>
<g fill="none" color="black" stroke="currentColor" stroke-width="1.00" stroke-linecap="butt" stroke-linejoin="miter">
	<path stroke='black'  d='M70.5,257.8 L79.5,257.8 M615.0,257.8 L606.0,257.8  '/>	<g transform="translate(62.2,261.7)" stroke="none" fill="black" font-family="Arial" font-size="12.00"  text-anchor="end">
		<text><tspan font-family="Arial" > 27520</tspan></text>
	</g>
</g>
<g fill="none" color="black" stroke="currentColor" stroke-width="1.00" stroke-linecap="butt" stroke-linejoin="miter">
	<path stroke='black'  d='M70.5,206.3 L79.5,206.3 M615.0,206.3 L606.0,206.3  '/>	<g transform="translate(62.2,210.2)" stroke="none" fill="black" font-family="Arial" font-size="12.00"  text-anchor="end">
		<text><tspan font-family="Arial" > 27540</tspan></text>
	</g>
</g>
<g fill="none" color="black" stroke="currentColor" stroke-width="1.00" stroke-linecap="butt" stroke-linejoin="miter">
	<path stroke='black'  d='M70.5,154.9 L79.5,154.9 M615.0,154.9 L606.0,154.9  '/>	<g transform="translate(62.2,158.8)" stroke="none" fill="black" font-family="Arial" font-size="12.00"  text-anchor="end">
		<text><tspan font-family="Arial" > 27560</tspan></text>
	</g>
</g>
<g fill="none" color="black" stroke="currentColor" stroke-width="1.00" stroke-linecap="butt" stroke-linejoin="miter">
	<path stroke='black'  d='M70.5,103.5 L79.5,103.5 M615.0,103.5 L606.0,103.5  '/>	<g transform="translate(62.2,107.4)" stroke="none" fill="black" font-family="Arial" font-size="12.00"  text-anchor="end">
		<text><tspan font-family="Arial" > 27580</tspan></text>
	</g>
</g>
<g fill="none" color="black" stroke="currentColor" stroke-width="1.00" stroke-linecap="butt" stroke-linejoin="miter">
	<path stroke='black'  d='M70.5,52.0 L79.5,52.0 M615.0,52.0 L606.0,52.0  '/>	<g transform="translate(62.2,55.9)" stroke="none" fill="black" font-family="Arial" font-size="12.00"  text-anchor="end">
		<text><tspan font-family="Arial" > 27600</tspan></text>
	</g>
</g>
<g fill="none" color="black" stroke="currentColor" stroke-width="1.00" stroke-linecap="butt" stroke-linejoin="miter">
	<path stroke='black'  d='M70.5,446.0 L70.5,437.0 M70.5,18.1 L70.5,27.1  '/>	<g transform="translate(70.5,467.9)" stroke="none" fill="black" font-family="Arial" font-size="12.00"  text-anchor="middle">
		<text><tspan font-family="Arial" > 0</tspan></text>
	</g>
</g>
<g fill="none" color="black" stroke="currentColor" stroke-width="1.00" stroke-linecap="butt" stroke-linejoin="miter">
	<path stroke='black'  d='M125.5,446.0 L125.5,437.0 M125.5,18.1 L125.5,27.1  '/>	<g transform="translate(125.5,467.9)" stroke="none" fill="black" font-family="Arial" font-size="12.00"  text-anchor="middle">
		<text><tspan font-family="Arial" > 10</tspan></text>
	</g>
</g>
<g fill="none" color="black" stroke="currentColor" stroke-width="1.00" stroke-linecap="butt" stroke-linejoin="miter">
	<path stroke='black'  d='M180.5,446.0 L180.5,437.0 M180.5,18.1 L180.5,27.1  '/>	<g transform="translate(180.5,467.9)" stroke="none" fill="black" font-family="Arial" font-size="12.00"  text-anchor="middle">
		<text><tspan font-family="Arial" > 20</tspan></text>
	</g>
</g>
<g fill="none" color="black" stroke="currentColor" stroke-width="1.00" stroke-linecap="butt" stroke-linejoin="miter">
	<path stroke='black'  d='M235.5,446.0 L235.5,437.0 M235.5,18.1 L235.5,27.1  '/>	<g transform="translate(235.5,467.9)" stroke="none" fill="black" font-family="Arial" font-size="12.00"  text-anchor="middle">
		<text><tspan font-family="Arial" > 30</tspan></text>
	</g>
</g>
<g fill="none" color="black" stroke="currentColor" stroke-width="1.00" stroke-linecap="butt" stroke-linejoin="miter">
	<path stroke='black'  d='M290.5,446.0 L290.5,437.0 M290.5,18.1 L290.5,27.1  '/>	<g transform="translate(290.5,467.9)" stroke="none" fill="black" font-family="Arial" font-size="12.00"  text-anchor="middle">
		<text><tspan font-family="Arial" > 40</tspan></text>
	</g>
</g>
<g fill="none" color="black" stroke="currentColor" stroke-width="1.00" stroke-linecap="butt" stroke-linejoin="miter">
	<path stroke='black'  d='M345.5,446.0 L345.5,437.0 M345.5,18.1 L345.5,27.1  '/>	<g transform="translate(345.5,467.9)" stroke="none" fill="black" font-family="Arial" font-size="12.00"  text-anchor="middle">
		<text><tspan font-family="Arial" > 50</tspan></text>
	</g>
</g>
<g fill="none" color="black" stroke="currentColor" stroke-width="1.00" stroke-linecap="butt" stroke-linejoin="miter">
	<path stroke='black'  d='M400.5,446.0 L400.5,437.0 M400.5,18.1 L400.5,27.1  '/>	<g transform="translate(400.5,467.9)" stroke="none" fill="black" font-family="Arial" font-size="12.00"  text-anchor="middle">
		<text><tspan font-family="Arial" > 60</tspan></text>
	</g>
</g>
<g fill="none" color="black" stroke="currentColor" stroke-width="1.00" stroke-linecap="butt" stroke-linejoin="miter">
	<path stroke='black'  d='M455.5,446.0 L455.5,437.0 M455.5,18.1 L455.5,27.1  '/>	<g transform="translate(455.5,467.9)" stroke="none" fill="black" font-family="Arial" font-size="12.00"  text-anchor="middle">
		<text><tspan font-family="Arial" > 70</tspan></text>
	</g>
</g>
<g fill="none" color="black" stroke="currentColor" stroke-width="1.00" stroke-linecap="butt" stroke-linejoin="miter">
	<path stroke='black'  d='M510.5,446.0 L510.5,437.0 M510.5,18.1 L510.5,27.1  '/>	<g transform="translate(510.5,467.9)" stroke="none" fill="black" font-family="Arial" font-size="12.00"  text-anchor="middle">
		<text><tspan font-family="Arial" > 80</tspan></text>
	</g>
</g>
<g fill="none" color="black" stroke="currentColor" stroke-width="1.00" stroke-linecap="butt" stroke-linejoin="miter">
	<path stroke='black'  d='M565.5,446.0 L565.5,437.0 M565.5,18.1 L565.5,27.1  '/>	<g transform="translate(565.5,467.9)" stroke="none" fill="black" font-family="Arial" font-size="12.00"  text-anchor="middle">
		<text><tspan font-family="Arial" > 90</tspan></text>
	</g>
</g>
<g fill="none" color="black" stroke="currentColor" stroke-width="1.00" stroke-linecap="butt" stroke-linejoin="miter">
</g>
<g fill="none" color="black" stroke="currentColor" stroke-width="1.00" stroke-linecap="butt" stroke-linejoin="miter">
	<path stroke='black'  d='M70.5,18.1 L70.5,446.0 L615.0,446.0 L615.0,18.1 L70.5,18.1 Z  '/></g>
<g fill="none" color="black" stroke="currentColor" stroke-width="1.00" stroke-linecap="butt" stroke-linejoin="miter">
</g>
	<g id="gnuplot_plot_1" ><title>pages+cached+nointeractive</title>
<g fill="none" color="black" stroke="currentColor" stroke-width="1.00" stroke-linecap="butt" stroke-linejoin="miter">
	<g transform="translate(283.9,485.9)" stroke="none" fill="black" font-family="Arial" font-size="12.00"  text-anchor="end">
		<text><tspan font-family="Arial" >pages+cached+nointeractive</tspan></text>
	</g>
</g>
<g fill="none" color="black" stroke="currentColor" stroke-width="1.00" stroke-linecap="butt" stroke-linejoin="miter">
	<path stroke='rgb(148,   0, 211)'  d='M292.2,482.0 L334.4,482.0 M70.5,437.8 L76.0,52.0 L81.5,52.0 L87.0,52.0 L92.5,52.0 L98.0,52.0
		L103.5,437.8 L109.0,437.8 L114.5,52.0 L120.0,437.8 L125.5,52.0 L131.0,437.8 L136.5,437.8 L142.0,437.8
		L147.5,52.0 L153.0,52.0 L158.5,52.0 L164.0,52.0 L169.5,52.0 L175.0,437.8 L180.5,52.0 L186.0,52.0
		L191.5,52.0 L197.0,52.0 L202.5,437.8 L208.0,437.8 L213.5,52.0 L219.0,437.8 L224.5,52.0 L230.0,437.8
		L235.5,52.0 L241.0,52.0 L246.5,52.0 L252.0,437.8 L257.5,437.8 L263.0,52.0 L268.5,52.0 L274.0,52.0
		L279.5,52.0 L285.0,52.0 L290.5,52.0 L296.0,52.0 L301.5,52.0 L307.0,52.0 L312.5,437.8 L318.0,437.8
		L323.5,52.0 L329.0,52.0 L334.5,52.0 L340.0,52.0 L345.5,52.0 L351.0,52.0 L356.5,437.8 L362.0,437.8
		L367.5,52.0 L373.0,437.8 L378.5,437.8 L384.0,52.0 L389.5,52.0 L395.0,437.8 L400.5,52.0 L406.0,437.8
		L411.5,52.0 L417.0,52.0 L422.5,52.0 L428.0,52.0 L433.5,52.0 L439.0,52.0 L444.5,52.0 L450.0,52.0
		L455.5,52.0 L461.0,437.8 L466.5,52.0 L472.0,52.0 L477.5,52.0 L483.0,52.0 L488.5,52.0 L494.0,52.0
		L499.5,52.0 L505.0,437.8 L510.5,52.0 L516.0,52.0 L521.5,52.0 L527.0,437.8 L532.5,437.8 L538.0,52.0
		L543.5,52.0 L549.0,437.8 L554.5,52.0 L560.0,437.8 L565.5,52.0 L571.0,52.0 L576.5,437.8 L582.0,52.0
		L587.5,52.0 L593.0,437.8 L598.5,52.0 L604.0,52.0 L609.5,52.0 L615.0,52.0  '/></g>
	</g>
	<g id="gnuplot_plot_2" ><title>pages+cached+noadtech</title>
<g fill="none" color="black" stroke="currentColor" stroke-width="1.00" stroke-linecap="butt" stroke-linejoin="miter">
	<g transform="translate(558.5,485.9)" stroke="none" fill="black" font-family="Arial" font-size="12.00"  text-anchor="end">
		<text><tspan font-family="Arial" >pages+cached+noadtech</tspan></text>
	</g>
</g>
<g fill="none" color="black" stroke="currentColor" stroke-width="1.00" stroke-linecap="butt" stroke-linejoin="miter">
	<path stroke='rgb(  0, 158, 115)'  d='M566.8,482.0 L609.0,482.0 M70.5,52.0 L76.0,437.8 L81.5,437.8 L87.0,437.8 L92.5,52.0 L98.0,52.0
		L103.5,437.8 L109.0,437.8 L114.5,437.8 L120.0,437.8 L125.5,52.0 L131.0,52.0 L136.5,437.8 L142.0,437.8
		L147.5,437.8 L153.0,437.8 L158.5,52.0 L164.0,437.8 L169.5,52.0 L175.0,437.8 L180.5,437.8 L186.0,437.8
		L191.5,437.8 L197.0,437.8 L202.5,437.8 L208.0,437.8 L213.5,437.8 L219.0,437.8 L224.5,52.0 L230.0,52.0
		L235.5,437.8 L241.0,437.8 L246.5,437.8 L252.0,437.8 L257.5,437.8 L263.0,52.0 L268.5,437.8 L274.0,437.8
		L279.5,52.0 L285.0,52.0 L290.5,437.8 L296.0,52.0 L301.5,437.8 L307.0,52.0 L312.5,437.8 L318.0,52.0
		L323.5,437.8 L329.0,437.8 L334.5,52.0 L340.0,437.8 L345.5,437.8 L351.0,437.8 L356.5,437.8 L362.0,52.0
		L367.5,437.8 L373.0,52.0 L378.5,437.8 L384.0,437.8 L389.5,437.8 L395.0,437.8 L400.5,437.8 L406.0,437.8
		L411.5,52.0 L417.0,437.8 L422.5,437.8 L428.0,437.8 L433.5,437.8 L439.0,437.8 L444.5,437.8 L450.0,52.0
		L455.5,52.0 L461.0,52.0 L466.5,437.8 L472.0,437.8 L477.5,52.0 L483.0,437.8 L488.5,437.8 L494.0,437.8
		L499.5,52.0 L505.0,437.8 L510.5,52.0 L516.0,437.8 L521.5,52.0 L527.0,437.8 L532.5,52.0 L538.0,52.0
		L543.5,52.0 L549.0,437.8 L554.5,26.3 L560.0,437.8 L565.5,437.8 L571.0,437.8 L576.5,437.8 L582.0,437.8
		L587.5,52.0 L593.0,52.0 L598.5,437.8 L604.0,437.8 L609.5,437.8 L615.0,52.0  '/></g>
	</g>
<g fill="none" color="#FFFFFF" stroke="rgb(  0, 158, 115)" stroke-width="2.00" stroke-linecap="butt" stroke-linejoin="miter">
</g>
<g fill="none" color="black" stroke="currentColor" stroke-width="2.00" stroke-linecap="butt" stroke-linejoin="miter">
</g>
<g fill="none" color="black" stroke="black" stroke-width="1.00" stroke-linecap="butt" stroke-linejoin="miter">
</g>
<g fill="none" color="black" stroke="currentColor" stroke-width="1.00" stroke-linecap="butt" stroke-linejoin="miter">
	<path stroke='black'  d='M70.5,18.1 L70.5,446.0 L615.0,446.0 L615.0,18.1 L70.5,18.1 Z  '/></g>
<g fill="none" color="black" stroke="currentColor" stroke-width="1.00" stroke-linecap="butt" stroke-linejoin="miter">
</g>
</g>
</svg>
